X:130
T: Ballygoughlin
S: M.Mulvihill
Z: B.Black
R: jig
M: 6/8
L: 1/8
K: D
A/G/ | FEF GE=C | Ddc Ade | fed cAG | FAF GE=C |
FEF GFG | Adc d2 e | fed cAG | Adc d2 :|
A | def gfg | aba ged | fef gfg | agf g2 e |
fef gfg | afd cAG | FEF GFG | Adc d2 :|
